neoactive/svg/Bandai - WonderSwan.svg

<?xml version="1.0" encoding="UTF-8" standalone="no"?>
<svg
   xmlns:dc="http://purl.org/dc/elements/1.1/"
   xmlns:cc="http://creativecommons.org/ns#"
   xmlns:rdf="http://www.w3.org/1999/02/22-rdf-syntax-ns#"
   xmlns:svg="http://www.w3.org/2000/svg"
   xmlns="http://www.w3.org/2000/svg"
   viewBox="0 0 320 320"
   height="320"
   width="320"
   xml:space="preserve"
   version="1.1"
   id="svg2"><metadata
     id="metadata8"><rdf:RDF><cc:Work
         rdf:about=""><dc:format>image/svg+xml</dc:format><dc:type
           rdf:resource="http://purl.org/dc/dcmitype/StillImage" /></cc:Work></rdf:RDF></metadata><defs
     id="defs6"><clipPath
       id="clipPath16"
       clipPathUnits="userSpaceOnUse"><path
         id="path18"
         d="m 67.44,192 c -9.909,0 -19.837,-0.32 -29.662,-1.543 l 0,0 c -6.498,-0.809 -12.766,-2.844 -18.524,-9.085 l 0,0 c -11.632,-12.606 -7.493,-88.566 0,-102.737 l 0,0 c 0.487,-0.922 0.987,-1.806 1.501,-2.651 l 0,0 c 3.623,-5.95 10.484,-9.466 17.745,-9.466 l 0,0 32.772,0 c 6.473,0 12.925,-0.213 19.38,-0.671 l 0,0 C 99.387,65.228 116.259,64.353 144.851,64 l 0,0 c 2.395,-10e-4 34.66,-0.009 45.242,0.525 l 0,0 c 8.249,0.59 17.312,1.642 27.686,3.482 l 0,0 c 20.197,3.582 25.65,9.91 26.221,17.714 l 0,0 0,88.566 c -0.324,11.191 -6.483,13.566 -19.023,15.549 l 0,0 c -9.55,1.509 -19.228,2.164 -28.91,2.164 l 0,0 -128.627,0 z" /></clipPath><linearGradient
       id="linearGradient24"
       spreadMethod="pad"
       gradientTransform="matrix(162.68022,-162.68022,-162.68022,-162.68022,49.126152,211.28233)"
       gradientUnits="userSpaceOnUse"
       y2="0"
       x2="1"
       y1="0"
       x1="0"><stop
         id="stop26"
         offset="0"
         style="stop-opacity:1;stop-color:#e6e7e8" /><stop
         id="stop28"
         offset="1"
         style="stop-opacity:1;stop-color:#d1d3d4" /></linearGradient><clipPath
       id="clipPath36"
       clipPathUnits="userSpaceOnUse"><path
         id="path38"
         d="m 79.376,183.421 c -2.808,-0.142 -4.947,-2.457 -5.904,-4.914 l 0,0 C 68.708,166.269 56.533,127.221 73.202,81.111 l 0,0 C 74.315,78.032 77.503,76 81.01,76 l 0,0 2.118,0 0,7.93 c 0,1.142 0.926,2.068 2.068,2.068 l 0,0 37.113,0 c 1.142,0 2.068,-0.926 2.068,-2.068 l 0,0 0.001,-7.93 c 0,0 53.043,2.734 70.178,4.221 l 0,0 c 2.874,0.251 5.397,1.849 6.631,4.267 l 0,0 c 4.853,9.506 14.619,37.223 -0.907,87.57 l 0,0 c -0.82,2.661 -3.172,4.695 -6.081,5.327 l 0,0 C 180.661,180.333 141.813,184 103.947,184 l 0,0 c -8.332,0 -16.614,-0.177 -24.571,-0.579" /></clipPath><linearGradient
       id="linearGradient44"
       spreadMethod="pad"
       gradientTransform="matrix(-111.66259,111.66259,111.66259,111.66259,190.326,73.118706)"
       gradientUnits="userSpaceOnUse"
       y2="0"
       x2="1"
       y1="0"
       x1="0"><stop
         id="stop46"
         offset="0"
         style="stop-opacity:1;stop-color:#e6e7e8" /><stop
         id="stop48"
         offset="1"
         style="stop-opacity:1;stop-color:#d1d3d4" /></linearGradient><clipPath
       id="clipPath56"
       clipPathUnits="userSpaceOnUse"><path
         id="path58"
         d="M 0,256 256,256 256,0 0,0 0,256 Z" /></clipPath></defs><g
     transform="matrix(1.25,0,0,-1.25,0,320)"
     id="g10"><g
       id="g12"><g
         clip-path="url(#clipPath16)"
         id="g14"><g
           id="g20"><g
             id="g22"><path
               id="path30"
               style="fill:url(#linearGradient24);stroke:none"
               d="m 67.44,192 c -9.909,0 -19.837,-0.32 -29.662,-1.543 l 0,0 c -6.498,-0.809 -12.766,-2.844 -18.524,-9.085 l 0,0 c -11.632,-12.606 -7.493,-88.566 0,-102.737 l 0,0 c 0.487,-0.922 0.987,-1.806 1.501,-2.651 l 0,0 c 3.623,-5.95 10.484,-9.466 17.745,-9.466 l 0,0 32.772,0 c 6.473,0 12.925,-0.213 19.38,-0.671 l 0,0 C 99.387,65.228 116.259,64.353 144.851,64 l 0,0 c 2.395,-10e-4 34.66,-0.009 45.242,0.525 l 0,0 c 8.249,0.59 17.312,1.642 27.686,3.482 l 0,0 c 20.197,3.582 25.65,9.91 26.221,17.714 l 0,0 0,88.566 c -0.324,11.191 -6.483,13.566 -19.023,15.549 l 0,0 c -9.55,1.509 -19.228,2.164 -28.91,2.164 l 0,0 -128.627,0 z" /></g></g></g></g><g
       id="g32"><g
         clip-path="url(#clipPath36)"
         id="g34"><g
           id="g40"><g
             id="g42"><path
               id="path50"
               style="fill:url(#linearGradient44);stroke:none"
               d="m 79.376,183.421 c -2.808,-0.142 -4.947,-2.457 -5.904,-4.914 l 0,0 C 68.708,166.269 56.533,127.221 73.202,81.111 l 0,0 C 74.315,78.032 77.503,76 81.01,76 l 0,0 2.118,0 0,7.93 c 0,1.142 0.926,2.068 2.068,2.068 l 0,0 37.113,0 c 1.142,0 2.068,-0.926 2.068,-2.068 l 0,0 0.001,-7.93 c 0,0 53.043,2.734 70.178,4.221 l 0,0 c 2.874,0.251 5.397,1.849 6.631,4.267 l 0,0 c 4.853,9.506 14.619,37.223 -0.907,87.57 l 0,0 c -0.82,2.661 -3.172,4.695 -6.081,5.327 l 0,0 C 180.661,180.333 141.813,184 103.947,184 l 0,0 c -8.332,0 -16.614,-0.177 -24.571,-0.579" /></g></g></g></g><g
       id="g52"><g
         clip-path="url(#clipPath56)"
         id="g54"><g
           transform="translate(110.5714,80)"
           id="g60"><path
             id="path62"
             style="fill:#ffffff;fill-opacity:1;fill-rule:nonzero;stroke:none"
             d="m 0,0 6.857,0 c 1.42,0 2.572,-0.895 2.572,-2 0,-1.105 -1.152,-2 -2.572,-2 L 0,-4 c -1.42,0 -2.571,0.895 -2.571,2 0,1.105 1.151,2 2.571,2" /></g><g
           transform="translate(90.5714,80)"
           id="g64"><path
             id="path66"
             style="fill:#ffffff;fill-opacity:1;fill-rule:nonzero;stroke:none"
             d="m 0,0 6.857,0 c 1.42,0 2.572,-0.895 2.572,-2 0,-1.105 -1.152,-2 -2.572,-2 L 0,-4 c -1.42,0 -2.571,0.895 -2.571,2 0,1.105 1.151,2 2.571,2" /></g><g
           transform="translate(50.2251,176.4853)"
           id="g68"><path
             id="path70"
             style="fill:#ffffff;fill-opacity:1;fill-rule:nonzero;stroke:none"
             d="m 0,0 c -1.873,2.578 -5.452,3.853 -9.595,3.437 -2.717,-0.283 -5.996,-1.422 -7.051,-3.778 -0.305,-0.681 -0.186,-1.477 0.304,-2.038 l 6.68,-7.635 c 0.363,-0.415 0.887,-0.652 1.437,-0.652 0.55,0 1.073,0.237 1.437,0.652 l 6.68,7.635 C 0.477,-1.709 0.522,-0.721 0,0" /></g><g
           transform="translate(50.1169,149.896)"
           id="g72"><path
             id="path74"
             style="fill:#ffffff;fill-opacity:1;fill-rule:nonzero;stroke:none"
             d="m 0,0 -6.68,7.635 c -0.727,0.832 -2.147,0.832 -2.874,0 L -16.234,0 c -0.49,-0.561 -0.609,-1.357 -0.304,-2.037 1.055,-2.357 4.334,-3.495 7.051,-3.779 0.526,-0.054 1.042,-0.08 1.547,-0.08 3.471,0 6.412,1.266 8.048,3.518 C 0.63,-1.657 0.585,-0.669 0,0" /></g><g
           transform="translate(37.5305,163.4386)"
           id="g76"><path
             id="path78"
             style="fill:#ffffff;fill-opacity:1;fill-rule:nonzero;stroke:none"
             d="m 0,0 -7.634,6.681 c -0.673,0.589 -1.659,0.626 -2.378,0.108 -2.58,-1.875 -3.866,-5.462 -3.437,-9.596 0.283,-2.718 1.422,-5.997 3.778,-7.052 0.251,-0.114 0.516,-0.168 0.781,-0.168 0.453,0 0.902,0.162 1.256,0.472 L 0,-2.874 c 0.416,0.363 0.652,0.887 0.652,1.437 C 0.652,-0.887 0.416,-0.364 0,0" /></g><g
           transform="translate(59.9188,163.3715)"
           id="g80"><path
             id="path82"
             style="fill:#ffffff;fill-opacity:1;fill-rule:nonzero;stroke:none"
             d="M 0,0 C -0.283,2.718 -1.422,5.997 -3.778,7.052 -4.46,7.363 -5.256,7.24 -5.815,6.748 l -7.634,-6.681 c -0.416,-0.363 -0.653,-0.887 -0.653,-1.437 0,-0.55 0.237,-1.074 0.653,-1.437 l 7.634,-6.681 c 0.358,-0.313 0.807,-0.472 1.256,-0.472 0.393,0 0.787,0.121 1.122,0.364 C -0.857,-7.721 0.429,-4.135 0,0" /></g><g
           transform="translate(50.2253,112.4904)"
           id="g84"><path
             id="path86"
             style="fill:#ffffff;fill-opacity:1;fill-rule:nonzero;stroke:none"
             d="m 0,0 c -1.875,2.577 -5.465,3.833 -9.591,3.438 -2.72,-0.283 -6,-1.424 -7.055,-3.781 -0.306,-0.679 -0.187,-1.477 0.304,-2.036 l 6.68,-7.637 c 0.363,-0.414 0.887,-0.652 1.437,-0.652 0.549,0 1.073,0.238 1.437,0.652 l 6.68,7.637 C 0.477,-1.708 0.522,-0.723 0,0" /></g><g
           transform="translate(50.1172,85.8955)"
           id="g88"><path
             id="path90"
             style="fill:#ffffff;fill-opacity:1;fill-rule:nonzero;stroke:none"
             d="m 0,0 -6.68,7.637 c -0.727,0.828 -2.147,0.828 -2.874,0 L -16.234,0 c -0.491,-0.559 -0.61,-1.357 -0.304,-2.036 1.055,-2.357 4.335,-3.498 7.055,-3.781 0.523,-0.052 1.04,-0.079 1.545,-0.079 3.468,0 6.41,1.265 8.046,3.517 C 0.63,-1.656 0.585,-0.671 0,0" /></g><g
           transform="translate(37.5304,99.439)"
           id="g92"><path
             id="path94"
             style="fill:#ffffff;fill-opacity:1;fill-rule:nonzero;stroke:none"
             d="m 0,0 -7.634,6.682 c -0.673,0.59 -1.659,0.634 -2.379,0.108 -2.579,-1.872 -3.863,-5.459 -3.437,-9.59 0.282,-2.719 1.422,-6 3.778,-7.059 0.25,-0.112 0.517,-0.168 0.781,-0.168 0.453,0 0.903,0.16 1.257,0.474 L 0,-2.871 C 0.416,-2.51 0.652,-1.987 0.652,-1.436 0.652,-0.884 0.416,-0.362 0,0" /></g><g
           transform="translate(59.9193,99.3683)"
           id="g96"><path
             id="path98"
             style="fill:#ffffff;fill-opacity:1;fill-rule:nonzero;stroke:none"
             d="M 0,0 C -0.282,2.718 -1.422,6 -3.778,7.059 -4.455,7.361 -5.256,7.253 -5.815,6.753 L -13.45,0.071 c -0.415,-0.362 -0.652,-0.884 -0.652,-1.436 0,-0.552 0.237,-1.074 0.652,-1.435 l 7.635,-6.683 c 0.357,-0.313 0.807,-0.473 1.256,-0.473 0.393,0 0.786,0.119 1.122,0.365 C -0.857,-7.719 0.427,-4.132 0,0" /></g><g
           transform="translate(226.1172,89.8955)"
           id="g100"><path
             id="path102"
             style="fill:#ffffff;fill-opacity:1;fill-rule:nonzero;stroke:none"
             d="m 0,0 -6.68,7.637 c -0.727,0.828 -2.147,0.828 -2.874,0 L -16.234,0 c -0.491,-0.559 -0.61,-1.357 -0.304,-2.036 1.055,-2.357 4.335,-3.498 7.055,-3.781 0.523,-0.052 1.04,-0.079 1.545,-0.079 3.468,0 6.41,1.265 8.046,3.517 C 0.63,-1.656 0.585,-0.671 0,0" /></g><g
           transform="translate(235.9193,103.3683)"
           id="g104"><path
             id="path106"
             style="fill:#ffffff;fill-opacity:1;fill-rule:nonzero;stroke:none"
             d="M 0,0 C -0.282,2.718 -1.422,6 -3.778,7.059 -4.455,7.361 -5.256,7.253 -5.815,6.753 L -13.45,0.071 c -0.415,-0.362 -0.652,-0.884 -0.652,-1.436 0,-0.552 0.237,-1.074 0.652,-1.435 l 7.635,-6.683 c 0.357,-0.313 0.807,-0.473 1.256,-0.473 0.393,0 0.786,0.119 1.122,0.365 C -0.857,-7.719 0.427,-4.132 0,0" /></g><path
           id="path108"
           style="fill:#999999;fill-opacity:1;fill-rule:nonzero;stroke:none"
           d="m 80,164 108,0 0,-68 -108,0 0,68 z" /><g
           transform="translate(243.0658,174)"
           id="g110"><path
             id="path112"
             style="fill:#999999;fill-opacity:1;fill-rule:nonzero;stroke:none"
             d="m 0,0 -19.691,0 -8.441,0 c -0.516,0 -0.934,-0.446 -0.934,-0.996 l 0,-0.008 c 0,-0.55 0.418,-0.996 0.934,-0.996 l 8.441,0 19.691,0 0.934,0 0,0.996 0,0.008 L 0.934,0 0,0 Z" /></g><g
           transform="translate(223.4666,170)"
           id="g114"><path
             id="path116"
             style="fill:#999999;fill-opacity:1;fill-rule:nonzero;stroke:none"
             d="m 0,0 -6.592,0 c -0.483,0 -0.875,-0.42 -0.875,-0.937 l 0,-0.126 C -7.467,-1.58 -7.075,-2 -6.592,-2 L 0,-2 l 19.658,0 0.875,0 0,0.937 0,0.126 0,0.937 L 19.658,0 0,0 Z" /></g><g
           transform="translate(223.5714,166)"
           id="g118"><path
             id="path120"
             style="fill:#999999;fill-opacity:1;fill-rule:nonzero;stroke:none"
             d="m 0,0 -4.846,0 c -0.401,0 -0.725,-0.35 -0.725,-0.781 l 0,-0.438 C -5.571,-1.65 -5.247,-2 -4.846,-2 L 0,-2 l 19.703,0 0.726,0 0,0.781 0,0.438 0,0.781 L 19.703,0 0,0 Z" /></g><g
           transform="translate(223.6923,162)"
           id="g122"><path
             id="path124"
             style="fill:#999999;fill-opacity:1;fill-rule:nonzero;stroke:none"
             d="m 0,0 -2.773,0 c -0.508,0 -0.919,-0.446 -0.919,-0.996 l 0,-0.008 C -3.692,-1.554 -3.281,-2 -2.773,-2 L 0,-2 l 19.388,0 0.92,0 0,0.996 0,0.008 0,0.996 -0.92,0 L 0,0 Z" /></g><g
           transform="translate(222,157.0034)"
           id="g126"><path
             id="path128"
             style="fill:#999999;fill-opacity:1;fill-rule:nonzero;stroke:none"
             d="m 0,0 0,-0.007 c 0,-0.55 0.409,-0.996 0.913,-0.996 l 21.087,0 0,2 -21.087,0 C 0.409,0.997 0,0.551 0,0" /></g></g></g></g></svg>

<?xml version="1.0" encoding="UTF-8" standalone="no"?>
<svg
   xmlns:dc="http://purl.org/dc/elements/1.1/"
   xmlns:cc="http://creativecommons.org/ns#"
   xmlns:rdf="http://www.w3.org/1999/02/22-rdf-syntax-ns#"
   xmlns:svg="http://www.w3.org/2000/svg"
   xmlns="http://www.w3.org/2000/svg"
   viewBox="0 0 309.33383 170.66684"
   height="170.66684"
   width="309.33383"
   xml:space="preserve"
   id="svg2"
   version="1.1"><metadata
     id="metadata8"><rdf:RDF><cc:Work
         rdf:about=""><dc:format>image/svg+xml</dc:format><dc:type
           rdf:resource="http://purl.org/dc/dcmitype/StillImage" /></cc:Work></rdf:RDF></metadata><defs
     id="defs6"><clipPath
       id="clipPath18"
       clipPathUnits="userSpaceOnUse"><path
         id="path16"
         d="m 67.44,192 c -9.909,0 -19.837,-0.32 -29.662,-1.543 v 0 c -6.498,-0.809 -12.766,-2.844 -18.524,-9.085 v 0 c -11.632,-12.606 -7.493,-88.566 0,-102.737 v 0 c 0.487,-0.922 0.987,-1.806 1.501,-2.651 v 0 c 3.623,-5.95 10.484,-9.466 17.745,-9.466 v 0 h 32.772 c 6.473,0 12.925,-0.213 19.38,-0.671 v 0 C 99.387,65.228 116.259,64.353 144.851,64 v 0 c 2.395,-10e-4 34.66,-0.009 45.242,0.525 v 0 c 8.249,0.59 17.312,1.642 27.686,3.482 v 0 c 20.197,3.582 25.65,9.91 26.221,17.714 v 0 88.566 c -0.324,11.191 -6.483,13.566 -19.023,15.549 v 0 c -9.55,1.509 -19.228,2.164 -28.91,2.164 v 0 z" /></clipPath><linearGradient
       id="linearGradient28"
       spreadMethod="pad"
       gradientTransform="matrix(162.68022,-162.68022,-162.68022,-162.68022,49.126152,211.28233)"
       gradientUnits="userSpaceOnUse"
       y2="0"
       x2="1"
       y1="0"
       x1="0"><stop
         id="stop24"
         offset="0"
         style="stop-opacity:1;stop-color:#e6e7e8" /><stop
         id="stop26"
         offset="1"
         style="stop-opacity:1;stop-color:#d1d3d4" /></linearGradient><clipPath
       id="clipPath38"
       clipPathUnits="userSpaceOnUse"><path
         id="path36"
         d="m 79.376,183.421 c -2.808,-0.142 -4.947,-2.457 -5.904,-4.914 v 0 C 68.708,166.269 56.533,127.221 73.202,81.111 v 0 C 74.315,78.032 77.503,76 81.01,76 v 0 h 2.118 v 7.93 c 0,1.142 0.926,2.068 2.068,2.068 v 0 h 37.113 c 1.142,0 2.068,-0.926 2.068,-2.068 v 0 L 124.378,76 c 0,0 53.043,2.734 70.178,4.221 v 0 c 2.874,0.251 5.397,1.849 6.631,4.267 v 0 c 4.853,9.506 14.619,37.223 -0.907,87.57 v 0 c -0.82,2.661 -3.172,4.695 -6.081,5.327 v 0 C 180.661,180.333 141.813,184 103.947,184 v 0 c -8.332,0 -16.614,-0.177 -24.571,-0.579" /></clipPath><linearGradient
       id="linearGradient48"
       spreadMethod="pad"
       gradientTransform="matrix(-111.66259,111.66259,111.66259,111.66259,190.326,73.118706)"
       gradientUnits="userSpaceOnUse"
       y2="0"
       x2="1"
       y1="0"
       x1="0"><stop
         id="stop44"
         offset="0"
         style="stop-opacity:1;stop-color:#e6e7e8" /><stop
         id="stop46"
         offset="1"
         style="stop-opacity:1;stop-color:#d1d3d4" /></linearGradient><clipPath
       id="clipPath58"
       clipPathUnits="userSpaceOnUse"><path
         id="path56"
         d="M 0,256 H 256 V 0 H 0 Z" /></clipPath></defs><g
     transform="matrix(1.3333333,0,0,-1.3333333,-16.000023,255.99999)"
     id="g10"><g
       id="g12"><g
         clip-path="url(#clipPath18)"
         id="g14"><g
           id="g20"><g
             id="g22"><path
               id="path30"
               style="fill:url(#linearGradient28);stroke:none"
               d="m 67.44,192 c -9.909,0 -19.837,-0.32 -29.662,-1.543 v 0 c -6.498,-0.809 -12.766,-2.844 -18.524,-9.085 v 0 c -11.632,-12.606 -7.493,-88.566 0,-102.737 v 0 c 0.487,-0.922 0.987,-1.806 1.501,-2.651 v 0 c 3.623,-5.95 10.484,-9.466 17.745,-9.466 v 0 h 32.772 c 6.473,0 12.925,-0.213 19.38,-0.671 v 0 C 99.387,65.228 116.259,64.353 144.851,64 v 0 c 2.395,-10e-4 34.66,-0.009 45.242,0.525 v 0 c 8.249,0.59 17.312,1.642 27.686,3.482 v 0 c 20.197,3.582 25.65,9.91 26.221,17.714 v 0 88.566 c -0.324,11.191 -6.483,13.566 -19.023,15.549 v 0 c -9.55,1.509 -19.228,2.164 -28.91,2.164 v 0 z" /></g></g></g></g><g
       id="g32"><g
         clip-path="url(#clipPath38)"
         id="g34"><g
           id="g40"><g
             id="g42"><path
               id="path50"
               style="fill:url(#linearGradient48);stroke:none"
               d="m 79.376,183.421 c -2.808,-0.142 -4.947,-2.457 -5.904,-4.914 v 0 C 68.708,166.269 56.533,127.221 73.202,81.111 v 0 C 74.315,78.032 77.503,76 81.01,76 v 0 h 2.118 v 7.93 c 0,1.142 0.926,2.068 2.068,2.068 v 0 h 37.113 c 1.142,0 2.068,-0.926 2.068,-2.068 v 0 L 124.378,76 c 0,0 53.043,2.734 70.178,4.221 v 0 c 2.874,0.251 5.397,1.849 6.631,4.267 v 0 c 4.853,9.506 14.619,37.223 -0.907,87.57 v 0 c -0.82,2.661 -3.172,4.695 -6.081,5.327 v 0 C 180.661,180.333 141.813,184 103.947,184 v 0 c -8.332,0 -16.614,-0.177 -24.571,-0.579" /></g></g></g></g><g
       id="g52"><g
         clip-path="url(#clipPath58)"
         id="g54"><g
           transform="translate(110.5714,80)"
           id="g60"><path
             id="path62"
             style="fill:#ffffff;fill-opacity:1;fill-rule:nonzero;stroke:none"
             d="m 0,0 h 6.857 c 1.42,0 2.572,-0.895 2.572,-2 0,-1.105 -1.152,-2 -2.572,-2 H 0 c -1.42,0 -2.571,0.895 -2.571,2 0,1.105 1.151,2 2.571,2" /></g><g
           transform="translate(90.5714,80)"
           id="g64"><path
             id="path66"
             style="fill:#ffffff;fill-opacity:1;fill-rule:nonzero;stroke:none"
             d="m 0,0 h 6.857 c 1.42,0 2.572,-0.895 2.572,-2 0,-1.105 -1.152,-2 -2.572,-2 H 0 c -1.42,0 -2.571,0.895 -2.571,2 0,1.105 1.151,2 2.571,2" /></g><g
           transform="translate(50.2251,176.4853)"
           id="g68"><path
             id="path70"
             style="fill:#ffffff;fill-opacity:1;fill-rule:nonzero;stroke:none"
             d="m 0,0 c -1.873,2.578 -5.452,3.853 -9.595,3.437 -2.717,-0.283 -5.996,-1.422 -7.051,-3.778 -0.305,-0.681 -0.186,-1.477 0.304,-2.038 l 6.68,-7.635 c 0.363,-0.415 0.887,-0.652 1.437,-0.652 0.55,0 1.073,0.237 1.437,0.652 l 6.68,7.635 C 0.477,-1.709 0.522,-0.721 0,0" /></g><g
           transform="translate(50.1169,149.896)"
           id="g72"><path
             id="path74"
             style="fill:#ffffff;fill-opacity:1;fill-rule:nonzero;stroke:none"
             d="m 0,0 -6.68,7.635 c -0.727,0.832 -2.147,0.832 -2.874,0 L -16.234,0 c -0.49,-0.561 -0.609,-1.357 -0.304,-2.037 1.055,-2.357 4.334,-3.495 7.051,-3.779 0.526,-0.054 1.042,-0.08 1.547,-0.08 3.471,0 6.412,1.266 8.048,3.518 C 0.63,-1.657 0.585,-0.669 0,0" /></g><g
           transform="translate(37.5305,163.4386)"
           id="g76"><path
             id="path78"
             style="fill:#ffffff;fill-opacity:1;fill-rule:nonzero;stroke:none"
             d="m 0,0 -7.634,6.681 c -0.673,0.589 -1.659,0.626 -2.378,0.108 -2.58,-1.875 -3.866,-5.462 -3.437,-9.596 0.283,-2.718 1.422,-5.997 3.778,-7.052 0.251,-0.114 0.516,-0.168 0.781,-0.168 0.453,0 0.902,0.162 1.256,0.472 L 0,-2.874 c 0.416,0.363 0.652,0.887 0.652,1.437 C 0.652,-0.887 0.416,-0.364 0,0" /></g><g
           transform="translate(59.9188,163.3715)"
           id="g80"><path
             id="path82"
             style="fill:#ffffff;fill-opacity:1;fill-rule:nonzero;stroke:none"
             d="M 0,0 C -0.283,2.718 -1.422,5.997 -3.778,7.052 -4.46,7.363 -5.256,7.24 -5.815,6.748 l -7.634,-6.681 c -0.416,-0.363 -0.653,-0.887 -0.653,-1.437 0,-0.55 0.237,-1.074 0.653,-1.437 l 7.634,-6.681 c 0.358,-0.313 0.807,-0.472 1.256,-0.472 0.393,0 0.787,0.121 1.122,0.364 C -0.857,-7.721 0.429,-4.135 0,0" /></g><g
           transform="translate(50.2253,112.4904)"
           id="g84"><path
             id="path86"
             style="fill:#ffffff;fill-opacity:1;fill-rule:nonzero;stroke:none"
             d="m 0,0 c -1.875,2.577 -5.465,3.833 -9.591,3.438 -2.72,-0.283 -6,-1.424 -7.055,-3.781 -0.306,-0.679 -0.187,-1.477 0.304,-2.036 l 6.68,-7.637 c 0.363,-0.414 0.887,-0.652 1.437,-0.652 0.549,0 1.073,0.238 1.437,0.652 l 6.68,7.637 C 0.477,-1.708 0.522,-0.723 0,0" /></g><g
           transform="translate(50.1172,85.8955)"
           id="g88"><path
             id="path90"
             style="fill:#ffffff;fill-opacity:1;fill-rule:nonzero;stroke:none"
             d="m 0,0 -6.68,7.637 c -0.727,0.828 -2.147,0.828 -2.874,0 L -16.234,0 c -0.491,-0.559 -0.61,-1.357 -0.304,-2.036 1.055,-2.357 4.335,-3.498 7.055,-3.781 0.523,-0.052 1.04,-0.079 1.545,-0.079 3.468,0 6.41,1.265 8.046,3.517 C 0.63,-1.656 0.585,-0.671 0,0" /></g><g
           transform="translate(37.5304,99.439)"
           id="g92"><path
             id="path94"
             style="fill:#ffffff;fill-opacity:1;fill-rule:nonzero;stroke:none"
             d="m 0,0 -7.634,6.682 c -0.673,0.59 -1.659,0.634 -2.379,0.108 -2.579,-1.872 -3.863,-5.459 -3.437,-9.59 0.282,-2.719 1.422,-6 3.778,-7.059 0.25,-0.112 0.517,-0.168 0.781,-0.168 0.453,0 0.903,0.16 1.257,0.474 L 0,-2.871 C 0.416,-2.51 0.652,-1.987 0.652,-1.436 0.652,-0.884 0.416,-0.362 0,0" /></g><g
           transform="translate(59.9193,99.3683)"
           id="g96"><path
             id="path98"
             style="fill:#ffffff;fill-opacity:1;fill-rule:nonzero;stroke:none"
             d="M 0,0 C -0.282,2.718 -1.422,6 -3.778,7.059 -4.455,7.361 -5.256,7.253 -5.815,6.753 L -13.45,0.071 c -0.415,-0.362 -0.652,-0.884 -0.652,-1.436 0,-0.552 0.237,-1.074 0.652,-1.435 l 7.635,-6.683 c 0.357,-0.313 0.807,-0.473 1.256,-0.473 0.393,0 0.786,0.119 1.122,0.365 C -0.857,-7.719 0.427,-4.132 0,0" /></g><g
           transform="translate(226.1172,89.8955)"
           id="g100"><path
             id="path102"
             style="fill:#ffffff;fill-opacity:1;fill-rule:nonzero;stroke:none"
             d="m 0,0 -6.68,7.637 c -0.727,0.828 -2.147,0.828 -2.874,0 L -16.234,0 c -0.491,-0.559 -0.61,-1.357 -0.304,-2.036 1.055,-2.357 4.335,-3.498 7.055,-3.781 0.523,-0.052 1.04,-0.079 1.545,-0.079 3.468,0 6.41,1.265 8.046,3.517 C 0.63,-1.656 0.585,-0.671 0,0" /></g><g
           transform="translate(235.9193,103.3683)"
           id="g104"><path
             id="path106"
             style="fill:#ffffff;fill-opacity:1;fill-rule:nonzero;stroke:none"
             d="M 0,0 C -0.282,2.718 -1.422,6 -3.778,7.059 -4.455,7.361 -5.256,7.253 -5.815,6.753 L -13.45,0.071 c -0.415,-0.362 -0.652,-0.884 -0.652,-1.436 0,-0.552 0.237,-1.074 0.652,-1.435 l 7.635,-6.683 c 0.357,-0.313 0.807,-0.473 1.256,-0.473 0.393,0 0.786,0.119 1.122,0.365 C -0.857,-7.719 0.427,-4.132 0,0" /></g><path
           id="path108"
           style="fill:#999999;fill-opacity:1;fill-rule:nonzero;stroke:none"
           d="M 80,164 H 188 V 96 H 80 Z" /><g
           transform="translate(243.0658,174)"
           id="g110"><path
             id="path112"
             style="fill:#999999;fill-opacity:1;fill-rule:nonzero;stroke:none"
             d="m 0,0 h -19.691 -8.441 c -0.516,0 -0.934,-0.446 -0.934,-0.996 v -0.008 c 0,-0.55 0.418,-0.996 0.934,-0.996 H -19.691 0 0.934 V -1.004 -0.996 0 Z" /></g><g
           transform="translate(223.4666,170)"
           id="g114"><path
             id="path116"
             style="fill:#999999;fill-opacity:1;fill-rule:nonzero;stroke:none"
             d="M 0,0 H -6.592 C -7.075,0 -7.467,-0.42 -7.467,-0.937 V -1.063 C -7.467,-1.58 -7.075,-2 -6.592,-2 H 0 19.658 20.533 V -1.063 -0.937 0 h -0.875 z" /></g><g
           transform="translate(223.5714,166)"
           id="g118"><path
             id="path120"
             style="fill:#999999;fill-opacity:1;fill-rule:nonzero;stroke:none"
             d="M 0,0 H -4.846 C -5.247,0 -5.571,-0.35 -5.571,-0.781 V -1.219 C -5.571,-1.65 -5.247,-2 -4.846,-2 H 0 19.703 20.429 V -1.219 -0.781 0 h -0.726 z" /></g><g
           transform="translate(223.6923,162)"
           id="g122"><path
             id="path124"
             style="fill:#999999;fill-opacity:1;fill-rule:nonzero;stroke:none"
             d="M 0,0 H -2.773 C -3.281,0 -3.692,-0.446 -3.692,-0.996 V -1.004 C -3.692,-1.554 -3.281,-2 -2.773,-2 H 0 19.388 20.308 V -1.004 -0.996 0 h -0.92 z" /></g><g
           transform="translate(222,157.0034)"
           id="g126"><path
             id="path128"
             style="fill:#999999;fill-opacity:1;fill-rule:nonzero;stroke:none"
             d="m 0,0 v -0.007 c 0,-0.55 0.409,-0.996 0.913,-0.996 H 22 v 2 H 0.913 C 0.409,0.997 0,0.551 0,0" /></g></g></g></g></svg>
